X: 0049
T: 415. MARSCH efter Berg
O: efter Isak Anders Persson
%R: march
B: Paul B\"ackstr\"om's "L\aatar fr\aan Dalarna" collection" 1974
Z: 2022 John Chambers <jc:trillian.mit.edu>
M: 2/4
L: 1/16
Q: 1/4=96
P: A-bas
K: D
% - - - - - - - - - -
u[A2D2] | v[dD]>(ef)>g a2a2 | (^g<e)(g>b) a2(af) | d>ef>g a2a2 | (^g<e)(gb) .[a2A2]z2 | "^*"[a6A6] :|
|: u[e2a2] | va>geg f2{gf}df | (e<g)ec [A4A4] | ABcd e2e2 | dcBc d2d2 |
B2{AG}A^G [A4A4] | ABcd e2e2 | dcBc d2d2 | B2{cB}A^G | [A2A2]e2 |
ageg f2df | egec A2e2 | ageg f2df | (eg)ec d2 :|
% - - - - - - - - - -
%%text * Denna takt, ett slags mellanspel, upprepas efter behag en eller flera g\aanger.
%%text Jmf.K.E.F.nr27.
